X:1
T:Wicked Polly
M:3/2
L:1/4
K:G
 B, E E| G3 A G E| D3 B, E E| G2 D2 G A| B3 B d d| B2 B2|(2A15.9999925000037/23.999988000006A15.9999925000037/23.999988000006G15.9999925000037/23.999988000006 E15.9999925000037/23.999988000006|\
 D3 B, E E| G2 B2 E ^D| E3||

